src/assets/updog-smiling.svg

<svg fill="none" height="230" viewBox="0 0 230 230" width="230" xmlns="http://www.w3.org/2000/svg"><circle cx="115" cy="115" fill="#f2fbf9" r="115"/><ellipse cx="99.7891" cy="208" fill="#c4c4c4" fill-opacity=".5" rx="88.5" ry="19"/><path d="m23.9195 107.498s-18.4674-69.9986 30.7767-75.8078c32.3585-3.814 53.4558 9.0028 64.1088 18.2382 5.779 5.0125 9.754 11.9215 11.228 19.6059 1.27 6.6551 1.96 15.1644-.602 22.0663 0 0 1.514 12.8734 22.381 30.2094 0 0 16.629 9.313 24.409 24.258 7.781 14.946 5.131 34.862 5.131 34.862s-1.947 23.611-25.112 27.298c-23.172 3.687-29.182 0-29.182 0s-4.245-2.58 3.36-7.381 12.384-7.008 12.384-7.008-32.541 2.03-43.5123 1.657c0 0-2.8323 17.152-17.8658 18.816s-.8855-19.923-.8855-19.923-17.5075.55-26.8832-6.825c0 0 1.3249 16.603-11.8496 19.74-13.1746 3.138-17.4197-4.244-14.5942-6.824 2.8323-2.58 8.8417-6.641 8.8417-6.641l-6.0972-41.228s-4.9413-3.433-5.2726-37.619z" fill="#e4b652"/><path d="m181.134 162.636s3.833-3.821 6.557-10.639c2.724-6.817 7.72-2.644 8.403.769.669 3.348 3.758 11.738-14.304 20.825l-2.677-5.971z" fill="#e4b652"/><path d="m44.742 32.2625s-20.0491 7.2262-27.5861 8.9957c-7.53706 1.7695-12.3905 1.1421-12.14715 13.9377.24334 12.7957 6.77315 21.8971 9.38915 22.4964 2.7106.6204 6.4149.4582 8.1251-8.1497 1.7102-8.608 3.3461-19.2393 9.7339-25.3305 5.3875-5.1394 10.5857-8.4881 12.066-9.4046.3448-.2115.6625-.4653.9464-.7685.7571-.7966 1.8251-2.2066-.5273-1.7765z" fill="#544b43"/><path d="m93.4569 35.4116s-2.2374-4.1312 6.0905-1.2831c8.3276 2.8482 15.0876 4.8857 22.6376 5.5625 7.551.6767 11.708 1.0856 13.533 7.7337s-2.602 18.0479-7.151 24.9639c-2.501 3.807-4.658 3.1795-6.084 1.8471-1.109-1.0364-1.778-2.4957-2.008-4.0255-.378-2.531-1.656-8.178-5.806-13.691-3.116-4.1313-13.776-17.787-21.2121-21.1076z" fill="#544b43"/><path d="m42.1953 77.916s10.7073-11.1672 25.2203-11.7312 22.4962 11.7312 22.4962 11.7312" stroke="#544b43" stroke-linecap="round" stroke-linejoin="round" stroke-miterlimit="10" stroke-width="1.6"/><path d="m66.5009 72.0427s-9.1932-1.0434-8.2266 6.8525c.115.9377.6895 1.7977 1.5548 2.0868 1.041.3454 2.7714.2115 5.5091-1.699 0 0 .9734-.9236 2.1225.0493 1.1492.9658 2.3389 2.6085 5.1238 1.7202 1.1424-.3666 1.7914-1.2126 2.1631-2.0938.7504-1.7837.311-3.9269-1.1559-5.1324-1.237-1.0152-3.3798-1.9176-7.0908-1.7836z" fill="#544b43"/><path d="m22.1133 98.6313s52.8591 21.5137 107.3277-7.1401l3.452 9.0068s-64.2042 31.503-110.6516 7.073z" fill="#16d2aa"/><path d="m68.6908 138.053c-5.1781 0-9.3757-4.492-9.3757-10.033s4.1976-10.033 9.3757-10.033c5.178 0 9.3756 4.492 9.3756 10.033s-4.1976 10.033-9.3756 10.033z" fill="#fff"/><path d="m68.6894 117.765c5.7796 0 10.4708 4.701 10.4708 10.507 0 5.8-4.6845 10.508-10.4708 10.508-5.7795 0-10.4707-4.701-10.4707-10.508 0-5.806 4.6912-10.507 10.4707-10.507zm0 19.556c4.9819 0 9.0242-4.056 9.0242-9.056 0-4.999-4.0355-9.055-9.0242-9.055-4.9818 0-9.0241 4.049-9.0241 9.055.0067 5.007 4.0423 9.056 9.0241 9.056z" fill="#16d2aa"/><path d="m68.6907 137.329c-4.9839 0-9.0242-4.055-9.0242-9.056 0-5.002 4.0403-9.056 9.0242-9.056s9.0241 4.054 9.0241 9.056c0 5.001-4.0402 9.056-9.0241 9.056z" fill="#fff"/><path d="m64.1766 130.455c.2907.36.676.543 1.1627.543s.872-.183 1.1559-.543c.2839-.359.4258-.854.4258-1.472v-3.256l1.7305-1.044v4.355c0 1.126-.3109 1.994-.9328 2.598-.6219.603-1.4128.909-2.3862.909-.9666 0-1.7643-.306-2.3929-.916-.6219-.611-.9396-1.472-.9396-2.591v-3.311l1.7305-1.044v4.294c.0135.63.1622 1.119.4461 1.478z" fill="#16d2aa"/><path d="m74.5784 125.381c.5408.462.8179 1.174.8179 2.137s-.2771 1.662-.8382 2.11c-.561.447-1.4127.665-2.5551.665h-1.0342v1.126l-1.7305 1.044v-7.78h2.7376c1.1897.006 2.055.237 2.6025.698zm-1.2708 3.06c.2095-.231.3109-.577.3109-1.025 0-.447-.1351-.766-.4055-.956s-.6895-.285-1.2573-.285h-.9869v2.618h1.1626c.5746 0 .9667-.115 1.1762-.352z" fill="#16d2aa"/><path d="m68.9264 115.648s.9808 1.638.0435 2.523c-.9436.892.4904.296.4904.296s.8753-1.626 0-2.819c0 0-.1862-.65-.5339 0z" fill="#b5e0d6"/><path d="m67.7461 116.932.3002-.071v.854l-.3002.047z" fill="#b5e0d6"/><g fill="#c58f2c"><path d="m53.6692 188.093s-.311-15.806.534-17.717c.8382-1.91 3.0891-.712-.534 17.717z"/><path d="m80.5352 194.402s1.8589-17.758 1.7169-22.82c-.1487-5.386 2.1631 10.342-1.7169 22.82z"/><path d="m99.2852 195.509s1.6768-19.126 4.2318-21.185c2.555-2.058-4.2318 21.185-4.2318 21.185z"/><path d="m142.726 193.846s-10.194-3.095-9.883-12.14 7.422-16.863 7.422-16.863-19.515 22.961 2.461 29.003z"/></g><path d="m43.1328 67.3812s.7436-3.1301 3.7922-3.2782c3.0554-.141 3.6908 2.115 3.6908 2.115" stroke="#1e1c1a" stroke-linecap="round" stroke-linejoin="round" stroke-miterlimit="10" stroke-width="2"/><path d="m83.1172 66.4898s1.379-2.8905 4.387-2.3336c3.0148.557 3.1568 2.8975 3.1568 2.8975" stroke="#1e1c1a" stroke-linecap="round" stroke-linejoin="round" stroke-miterlimit="10" stroke-width="2"/><path d="m62.8293 87.4889s.7219 4.5181 3.3132 4.8718c2.5866.3575 3.8027-3.9975 3.8027-3.9975l-3.6728-3.0878z" fill="#da4351"/><path d="m66.3555 78.8887v5.9924s1.3384 2.8693 6.2053 3.0385c.338.0141.676-.0352 1.0072-.1269 1.0613-.289 3.3528-1.0856 4.2316-2.7565" stroke="#544b43" stroke-linecap="round" stroke-linejoin="round" stroke-miterlimit="10" stroke-width="1.6"/><path d="m66.3511 84.873s-2.2577 4.0467-5.8809 3.0456-3.6772-3.0456-3.6772-3.0456" stroke="#544b43" stroke-linecap="round" stroke-linejoin="round" stroke-miterlimit="10" stroke-width="1.6"/></svg>

<svg width="230" height="230" viewBox="0 0 230 230" fill="none" xmlns="http://www.w3.org/2000/svg">
<circle cx="115" cy="115" r="115" fill="#F2FBF9"/>
<ellipse cx="99.7891" cy="208" rx="88.5" ry="19" fill="#C4C4C4" fill-opacity="0.5"/>
<path d="M23.9195 107.498C23.9195 107.498 5.4521 37.4994 54.6962 31.6902C87.0547 27.8762 108.152 40.693 118.805 49.9284C124.584 54.9409 128.559 61.8499 130.033 69.5343C131.303 76.1894 131.993 84.6987 129.431 91.6006C129.431 91.6006 130.945 104.474 151.812 121.81C151.812 121.81 168.441 131.123 176.221 146.068C184.002 161.014 181.352 180.93 181.352 180.93C181.352 180.93 179.405 204.541 156.24 208.228C133.068 211.915 127.058 208.228 127.058 208.228C127.058 208.228 122.813 205.648 130.418 200.847C138.023 196.046 142.802 193.839 142.802 193.839C142.802 193.839 110.261 195.869 99.2897 195.496C99.2897 195.496 96.4574 212.648 81.4239 214.312C66.3904 215.976 80.5384 194.389 80.5384 194.389C80.5384 194.389 63.0309 194.939 53.6552 187.564C53.6552 187.564 54.9801 204.167 41.8056 207.304C28.631 210.442 24.3859 203.06 27.2114 200.48C30.0437 197.9 36.0531 193.839 36.0531 193.839L29.9559 152.611C29.9559 152.611 25.0146 149.178 24.6833 114.992L23.9195 107.498Z" fill="#E4B652"/>
<path d="M181.134 162.636C181.134 162.636 184.967 158.815 187.691 151.997C190.415 145.18 195.411 149.353 196.094 152.766C196.763 156.114 199.852 164.504 181.79 173.591L179.113 167.62L181.134 162.636Z" fill="#E4B652"/>
<path d="M44.742 32.2625C44.742 32.2625 24.6929 39.4887 17.1559 41.2582C9.61884 43.0277 4.7654 42.4003 5.00875 55.1959C5.25209 67.9916 11.7819 77.093 14.3979 77.6923C17.1085 78.3127 20.8128 78.1505 22.523 69.5426C24.2332 60.9346 25.8691 50.3033 32.2569 44.2121C37.6444 39.0727 42.8426 35.724 44.3229 34.8075C44.6677 34.596 44.9854 34.3422 45.2693 34.039C46.0264 33.2424 47.0944 31.8324 44.742 32.2625Z" fill="#544B43"/>
<path d="M93.4569 35.4116C93.4569 35.4116 91.2195 31.2804 99.5474 34.1285C107.875 36.9767 114.635 39.0142 122.185 39.691C129.736 40.3677 133.893 40.7766 135.718 47.4247C137.543 54.0728 133.116 65.4726 128.567 72.3886C126.066 76.1956 123.909 75.5681 122.483 74.2357C121.374 73.1993 120.705 71.74 120.475 70.2102C120.097 67.6792 118.819 62.0322 114.669 56.5192C111.553 52.3879 100.893 38.7322 93.4569 35.4116Z" fill="#544B43"/>
<path d="M42.1953 77.916C42.1953 77.916 52.9026 66.7488 67.4156 66.1848C81.9286 65.6208 89.9118 77.916 89.9118 77.916" stroke="#544B43" stroke-width="1.6" stroke-miterlimit="10" stroke-linecap="round" stroke-linejoin="round"/>
<path d="M66.5009 72.0427C66.5009 72.0427 57.3077 70.9993 58.2743 78.8952C58.3893 79.8329 58.9638 80.6929 59.8291 80.982C60.8701 81.3274 62.6005 81.1935 65.3382 79.283C65.3382 79.283 66.3116 78.3594 67.4607 79.3323C68.6099 80.2981 69.7996 81.9408 72.5845 81.0525C73.7269 80.6859 74.3759 79.8399 74.7476 78.9587C75.498 77.175 75.0586 75.0318 73.5917 73.8263C72.3547 72.8111 70.2119 71.9087 66.5009 72.0427Z" fill="#544B43"/>
<path d="M22.1133 98.6313C22.1133 98.6313 74.9724 120.145 129.441 91.4912L132.893 100.498C132.893 100.498 68.6888 132.001 22.2414 107.571L22.1133 98.6313Z" fill="#16D2AA"/>
<path d="M68.6908 138.053C63.5127 138.053 59.3151 133.561 59.3151 128.02C59.3151 122.479 63.5127 117.987 68.6908 117.987C73.8688 117.987 78.0664 122.479 78.0664 128.02C78.0664 133.561 73.8688 138.053 68.6908 138.053Z" fill="white"/>
<path d="M68.6894 117.765C74.469 117.765 79.1602 122.466 79.1602 128.272C79.1602 134.072 74.4757 138.78 68.6894 138.78C62.9099 138.78 58.2187 134.079 58.2187 128.272C58.2187 122.466 62.9099 117.765 68.6894 117.765ZM68.6894 137.321C73.6713 137.321 77.7136 133.265 77.7136 128.265C77.7136 123.266 73.6781 119.21 68.6894 119.21C63.7076 119.21 59.6653 123.259 59.6653 128.265C59.672 133.272 63.7076 137.321 68.6894 137.321Z" fill="#16D2AA"/>
<path d="M68.6907 137.329C63.7068 137.329 59.6665 133.274 59.6665 128.273C59.6665 123.271 63.7068 119.217 68.6907 119.217C73.6746 119.217 77.7148 123.271 77.7148 128.273C77.7148 133.274 73.6746 137.329 68.6907 137.329Z" fill="white"/>
<path d="M64.1766 130.455C64.4673 130.815 64.8526 130.998 65.3393 130.998C65.826 130.998 66.2113 130.815 66.4952 130.455C66.7791 130.096 66.921 129.601 66.921 128.983V125.727L68.6515 124.683V129.038C68.6515 130.164 68.3406 131.032 67.7187 131.636C67.0968 132.239 66.3059 132.545 65.3325 132.545C64.3659 132.545 63.5682 132.239 62.9396 131.629C62.3177 131.018 62 130.157 62 129.038V125.727L63.7305 124.683V128.977C63.744 129.607 63.8927 130.096 64.1766 130.455Z" fill="#16D2AA"/>
<path d="M74.5784 125.381C75.1192 125.843 75.3963 126.555 75.3963 127.518C75.3963 128.481 75.1192 129.18 74.5581 129.628C73.9971 130.075 73.1454 130.293 72.003 130.293H70.9688V131.419L69.2383 132.463V124.683H71.9759C73.1656 124.689 74.0309 124.92 74.5784 125.381ZM73.3076 128.441C73.5171 128.21 73.6185 127.864 73.6185 127.416C73.6185 126.969 73.4834 126.65 73.213 126.46C72.9426 126.27 72.5235 126.175 71.9557 126.175H70.9688V128.793H72.1314C72.706 128.793 73.0981 128.678 73.3076 128.441Z" fill="#16D2AA"/>
<path d="M68.9264 115.648C68.9264 115.648 69.9072 117.286 68.9699 118.171C68.0263 119.063 69.4603 118.467 69.4603 118.467C69.4603 118.467 70.3356 116.841 69.4603 115.648C69.4603 115.648 69.2741 114.998 68.9264 115.648Z" fill="#B5E0D6"/>
<path d="M67.7461 116.932L68.0463 116.861V117.715L67.7461 117.762V116.932Z" fill="#B5E0D6"/>
<path d="M53.6692 188.093C53.6692 188.093 53.3582 172.287 54.2032 170.376C55.0414 168.466 57.2923 169.664 53.6692 188.093Z" fill="#C58F2C"/>
<path d="M80.5352 194.402C80.5352 194.402 82.3941 176.644 82.2521 171.582C82.1034 166.196 84.4152 181.924 80.5352 194.402Z" fill="#C58F2C"/>
<path d="M99.2852 195.509C99.2852 195.509 100.962 176.383 103.517 174.324C106.072 172.266 99.2852 195.509 99.2852 195.509Z" fill="#C58F2C"/>
<path d="M142.726 193.846C142.726 193.846 132.532 190.751 132.843 181.706C133.154 172.661 140.265 164.843 140.265 164.843C140.265 164.843 120.75 187.804 142.726 193.846Z" fill="#C58F2C"/>
<path d="M43.1328 67.3812C43.1328 67.3812 43.8764 64.2511 46.925 64.103C49.9804 63.962 50.6158 66.218 50.6158 66.218" stroke="#1E1C1A" stroke-width="2" stroke-miterlimit="10" stroke-linecap="round" stroke-linejoin="round"/>
<path d="M83.1172 66.4898C83.1172 66.4898 84.4962 63.5993 87.5042 64.1562C90.519 64.7132 90.661 67.0537 90.661 67.0537" stroke="#1E1C1A" stroke-width="2" stroke-miterlimit="10" stroke-linecap="round" stroke-linejoin="round"/>
<path d="M62.8293 87.4889C62.8293 87.4889 63.5512 92.007 66.1425 92.3607C68.7291 92.7182 69.9452 88.3632 69.9452 88.3632L66.2724 85.2754L62.8293 87.4889Z" fill="#DA4351"/>
<path d="M66.3555 78.8887V84.8811C66.3555 84.8811 67.6939 87.7504 72.5608 87.9196C72.8988 87.9337 73.2368 87.8844 73.568 87.7927C74.6293 87.5037 76.9208 86.7071 77.7996 85.0362" stroke="#544B43" stroke-width="1.6" stroke-miterlimit="10" stroke-linecap="round" stroke-linejoin="round"/>
<path d="M66.3511 84.873C66.3511 84.873 64.0934 88.9197 60.4702 87.9186C56.847 86.9175 56.793 84.873 56.793 84.873" stroke="#544B43" stroke-width="1.6" stroke-miterlimit="10" stroke-linecap="round" stroke-linejoin="round"/>
</svg>
